src/icons/werf.svg

<?xml version="1.0" encoding="UTF-8"?>
<svg version="1.1" viewBox="0 0 100 111" xmlns="http://www.w3.org/2000/svg">
 <path d="m74.849 59.509 3.3068 9.6971 5.7682-9.6971zm-0.60149-20.967v17.932h9.7882zm-3.095 10.125v-14.485h-4.9379zm-10.769-31.582 4.7949 14.06h5.0317l-8.1661-14.959-1.236 0.66762-0.42452 0.2288zm-6.7406 78.095h7.3394l-2.7688-5.0085-0.91787 0.97686a71.108 69.794 0 0 1-3.6527 4.0308zm-3.5937-4.567 0.12512-29.212a48.51 47.615 0 0 0-3.263 2.0645c0.12512 3.6071 0.71499 15.891 3.137 27.147zm-8.3743-23.137c0.11172 2.3103 0.81152 10.604 5.1649 19.634-1.5703-8.8427-2.1405-17.601-2.3398-21.906a62.074 60.926 0 0 0-2.8251 2.2719zm-2.6794 27.704h7.6388l-0.58361-0.67209a69.587 68.302 0 0 1-4.088-4.6894l-2.9672 5.3598zm-2.4426-22.688c0.27527 1.6293 2.4238 7.7728 7.763 15.086-3.516-7.4851-4.6314-14.336-4.9808-17.987a46.725 45.861 0 0 0-2.7831 2.9011zm3.8601-15.062v6.9479a46.951 46.083 0 0 1 3.8842-2.9592c3.4248-2.4891 4.8181-3.0003 5.6976-3.0557h-0.0054v-0.93306zm-24.358 2.0797 6.1668 10.364 4.2444-10.364zm11.154-16.456-10.677 13.419h10.677zm3.0968-3.8887v10.974l7.5092-18.34-1.0037-0.81152-6.5073 8.1777zm49.892 32.635h6.2177l1.548 1.5194v23.378l-1.548 1.5211h-72.853l-1.5462-1.5176v-23.38l1.5462-1.5194h6.2204l-7.7603-13.04 0.11529-1.7017 23.211-29.167 2.1083-0.2288 0.03843-0.05184 10.428 7.6772-1.8563 2.431-5.6386-4.1532-16.23 39.632 12.145 20.407 3.5955-6.4957c-6.0908-8.6836-6.5341-14.664-6.5565-15.001l0.36286-1.0689a62.861 61.699 0 0 1 3.5705-3.8279v-11.299l1.5497-1.5194h22.247l1.548 1.5194v10.947a62.175 61.026 0 0 1 3.9324 4.1827l0.36107 1.0671c-0.01877 0.3423-0.47368 6.4501-6.7567 15.288l3.4382 6.2088 12.444-20.91-18.449-54.12-5.0603 2.7411-1.4934-2.6598 10.841-5.8728 2.1128 0.614 23.954 43.878" fill="#1e88e5" fill-rule="evenodd" stroke-width=".89374"/>
</svg>

<svg viewBox="0 0 100 111" xmlns="http://www.w3.org/2000/svg">
  <path
    d="M74.849 59.509L78.1558 69.2061L83.924 59.509H74.849ZM74.2475 38.542V56.474H84.0357L74.2475 38.542ZM71.1525 48.667V34.182H66.2146L71.1525 48.667ZM60.3835 17.085L65.1784 31.145H70.2101L62.044 16.186L60.808 16.8536L60.3835 17.0824L60.3835 17.085ZM53.6429 95.18H60.9823L58.2135 90.1715L57.2956 91.1484C56.1314 92.5377 54.9129 93.8831 53.6429 95.18ZM50.0492 90.613L50.1743 61.401C49.059 62.0462 47.9705 62.7349 46.9113 63.4655C47.0365 67.0726 47.6263 79.3565 50.0483 90.6125L50.0492 90.613ZM41.6749 67.476C41.7866 69.7863 42.4864 78.08 46.8398 87.11C45.2695 78.2673 44.6993 69.509 44.5 65.204C43.5358 65.9339 42.5937 66.6917 41.6749 67.476ZM38.9955 95.18H46.6343L46.0507 94.5079C44.6167 93.006 43.2527 91.4413 41.9627 89.8185L38.9955 95.1783L38.9955 95.18ZM36.5529 72.492C36.8282 74.1213 38.9767 80.2648 44.3159 87.578C40.7999 80.0929 39.6845 73.242 39.3351 69.591C38.365 70.518 37.4374 71.4858 36.5529 72.492ZM40.413 57.43V64.3779C41.6542 63.3256 42.9507 62.3378 44.2972 61.4187C47.722 58.9296 49.1153 58.4184 49.9948 58.363H49.9894V57.4299L40.413 57.43ZM16.055 59.5097L22.2218 69.8737L26.4662 59.5097H16.055ZM27.209 43.0537L16.532 56.4727H27.209V43.0537ZM30.3058 39.165V50.139L37.815 31.799L36.8113 30.9875L30.304 39.1652L30.3058 39.165ZM80.1978 71.8H86.4155L87.9635 73.3194V96.6974L86.4155 98.2185H13.5625L12.0163 96.7009V73.3209L13.5625 71.8015H19.7829L12.0226 58.7615L12.1379 57.0598L35.3489 27.8928L37.4572 27.664L37.4956 27.6122L47.9236 35.2894L46.0673 37.7204L40.4287 33.5672L24.1987 73.1992L36.3437 93.6062L39.9392 87.1105C33.8484 78.4269 33.4051 72.4465 33.3827 72.1095L33.7456 71.0406C34.8805 69.716 36.0718 68.4389 37.3161 67.2127V55.9137L38.8658 54.3943H61.1128L62.6608 55.9137V66.8607C64.0372 68.1941 65.3494 69.5899 66.5932 71.0434L66.9543 72.1105C66.9355 72.4528 66.4806 78.5606 60.1976 87.3985L63.6358 93.6073L76.0798 72.6973L57.6308 18.5773L52.5705 21.3184L51.0771 18.6586L61.9181 12.7858L64.0309 13.3998L87.9849 57.2778"
    fill="#1E88E5"
  />
</svg>
